packages/foundations/assets/icons/functional/images/transportation/scooter_inverted.svg

<svg xmlns="http://www.w3.org/2000/svg" width="32" height="32" fill="none"><path fill="#1A1C1F" fill-rule="evenodd" d="M19.573 6.787c-.248.168-.376.36-.41.614-.04.296.137.66.401.824.192.119.235.122 2.018.148l1.822.027.232.162c.127.09.291.27.364.4l.133.238.017 1.984.016 1.983-2.79 3.256-2.789 3.256h-1.48c-.814.001-1.48-.01-1.48-.024 0-.149-2.704-8.962-2.8-9.126-.17-.29-.459-.539-.825-.71l-.295-.139-2.438-.015c-2.352-.015-2.446-.012-2.648.091a.94.94 0 0 0-.47.665c-.042.259.147.633.399.79.195.121.215.123 2.513.149l2.316.027.337 1.12c.185.616.336 1.124.337 1.13 0 .006-1.314.019-2.92.029-2.813.018-2.935.023-3.346.136-1.46.401-2.72 1.497-3.262 2.837-.312.775-.352 1.044-.376 2.561-.022 1.395-.021 1.417.101 1.653.068.132.205.294.305.36.165.11.243.12.893.12h.712v.338c0 .421.16 1.062.373 1.494a3.86 3.86 0 0 0 4.973 1.87c1.342-.565 2.334-2.015 2.334-3.412v-.29h3.694c3.418 0 3.707-.007 3.864-.093.214-.117 6.225-7.106 6.365-7.4.094-.199.101-.359.102-2.373 0-2.394-.024-2.634-.327-3.254-.22-.449-.759-.994-1.205-1.22-.612-.309-.761-.326-2.763-.326-1.801 0-1.823.001-1.997.12M25.2 17.74c-.469.097-1.239.468-1.64.789-1.028.824-1.588 2.301-1.357 3.579.263 1.453 1.219 2.569 2.614 3.05.528.183 1.399.226 1.989.099 2.465-.532 3.772-3.303 2.604-5.523-.408-.775-.945-1.289-1.757-1.683a3.76 3.76 0 0 0-2.453-.311m1.704 1.824c.86.403 1.368 1.354 1.209 2.263-.166.947-.896 1.672-1.8 1.789-1.191.153-2.218-.604-2.426-1.789-.152-.868.329-1.823 1.119-2.223.39-.198.615-.243 1.112-.221.351.015.506.05.786.181m-16.783 2.137a2.36 2.36 0 0 1-.492 1.221c-.503.594-1.506.871-2.289.631-.8-.245-1.374-.986-1.457-1.883l-.032-.337h4.297z"/></svg>

<svg width="32" height="32" viewBox="0 0 32 32" fill="none" xmlns="http://www.w3.org/2000/svg"><path d="M19.573 6.787 C 19.325 6.955,19.197 7.147,19.163 7.401 C 19.123 7.697,19.300 8.061,19.564 8.225 C 19.756 8.344,19.799 8.347,21.582 8.373 L 23.404 8.400 23.636 8.562 C 23.763 8.652,23.927 8.832,24.000 8.962 L 24.133 9.200 24.150 11.184 L 24.166 13.167 21.376 16.423 L 18.587 19.679 17.107 19.679 C 16.293 19.680,15.627 19.669,15.627 19.655 C 15.627 19.506,12.923 10.693,12.827 10.529 C 12.657 10.239,12.368 9.990,12.002 9.819 L 11.707 9.680 9.269 9.665 C 6.917 9.650,6.823 9.653,6.621 9.756 C 6.385 9.877,6.196 10.144,6.151 10.421 C 6.109 10.680,6.298 11.054,6.550 11.211 C 6.745 11.332,6.765 11.334,9.063 11.360 L 11.379 11.387 11.716 12.507 C 11.901 13.123,12.052 13.631,12.053 13.637 C 12.053 13.643,10.739 13.656,9.133 13.666 C 6.320 13.684,6.198 13.689,5.787 13.802 C 4.327 14.203,3.067 15.299,2.525 16.639 C 2.213 17.414,2.173 17.683,2.149 19.200 C 2.127 20.595,2.128 20.617,2.250 20.853 C 2.318 20.985,2.455 21.147,2.555 21.213 C 2.720 21.323,2.798 21.333,3.448 21.333 L 4.160 21.333 4.160 21.671 C 4.160 22.092,4.320 22.733,4.533 23.165 C 5.447 25.017,7.612 25.832,9.506 25.035 C 10.848 24.470,11.840 23.020,11.840 21.623 L 11.840 21.333 15.534 21.333 C 18.952 21.333,19.241 21.326,19.398 21.240 C 19.612 21.123,25.623 14.134,25.763 13.840 C 25.857 13.641,25.864 13.481,25.865 11.467 C 25.865 9.073,25.841 8.833,25.538 8.213 C 25.318 7.764,24.779 7.219,24.333 6.993 C 23.721 6.684,23.572 6.667,21.570 6.667 C 19.769 6.667,19.747 6.668,19.573 6.787 M25.200 17.740 C 24.731 17.837,23.961 18.208,23.560 18.529 C 22.532 19.353,21.972 20.830,22.203 22.108 C 22.466 23.561,23.422 24.677,24.817 25.158 C 25.345 25.341,26.216 25.384,26.806 25.257 C 29.271 24.725,30.578 21.954,29.410 19.734 C 29.002 18.959,28.465 18.445,27.653 18.051 C 26.870 17.671,26.038 17.565,25.200 17.740 M26.904 19.564 C 27.764 19.967,28.272 20.918,28.113 21.827 C 27.947 22.774,27.217 23.499,26.313 23.616 C 25.122 23.769,24.095 23.012,23.887 21.827 C 23.735 20.959,24.216 20.004,25.006 19.604 C 25.396 19.406,25.621 19.361,26.118 19.383 C 26.469 19.398,26.624 19.433,26.904 19.564 M10.121 21.701 C 10.092 22.107,9.887 22.617,9.629 22.922 C 9.126 23.516,8.123 23.793,7.340 23.553 C 6.540 23.308,5.966 22.567,5.883 21.670 L 5.851 21.333 7.999 21.333 L 10.148 21.333 10.121 21.701 " fill="#1A1C1F" stroke="none" fill-rule="evenodd"></path></svg>
